lib/flags/va-vatican-city-state.svg

<svg xmlns="http://www.w3.org/2000/svg" fill="none" aria-hidden="true" viewBox="0 0 42 30"><g id="Country=VA - Vatican City State, Size=sm (36x24)" filter="url(#filter0_dd_91_24129)"><g clip-path="url(#clip0_91_24129)"><g id="flag"><mask id="mask0_91_24129" width="36" height="24" x="3" y="2" maskUnits="userSpaceOnUse" style="mask-type:alpha"><rect id="mask" width="36" height="24" x="3" y="2" fill="white"/></mask><g mask="url(#mask0_91_24129)"><g id="contents"><path id="base" fill="#F7FCFF" fill-rule="evenodd" d="M3 2H39V26H3V2Z" clip-rule="evenodd"/><path id="left" fill="#FFDC17" fill-rule="evenodd" d="M3 2H18.75V26H3V2Z" clip-rule="evenodd"/><g id="mark"><path id="Path 286" fill="#AF0100" d="M28.6296 14.7515L28.2413 14.774C28.334 15.9597 28.6206 16.8757 29.1069 17.5221C29.8913 18.5645 30.9264 19.3705 31.619 19.3705C31.7763 19.3705 31.8129 19.4225 31.761 19.5507C31.6872 19.733 31.4539 19.9123 31.1537 19.9811C30.6545 20.0955 29.519 20.1548 27.7666 20.1548V20.4896C29.5541 20.4896 30.7101 20.4293 31.2539 20.3047C31.6763 20.2079 32.0114 19.9503 32.1286 19.6608C32.2641 19.3259 32.0596 19.0356 31.619 19.0356C31.1046 19.0356 30.1503 18.2925 29.4336 17.3401C28.9882 16.7481 28.7182 15.8852 28.6296 14.7515Z"/><path id="Path 286_2" fill="#AF0100" d="M26.7904 14.7515L27.1787 14.774C27.0859 15.9597 26.7993 16.8757 26.313 17.5221C25.5286 18.5645 24.4936 19.3705 23.8009 19.3705C23.6436 19.3705 23.607 19.4225 23.6589 19.5507C23.7327 19.733 23.966 19.9123 24.2662 19.9811C24.7654 20.0955 25.9009 20.1548 27.6533 20.1548V20.4896C25.8658 20.4896 24.7098 20.4293 24.166 20.3047C23.7437 20.2079 23.4085 19.9503 23.2914 19.6608C23.1559 19.3259 23.3604 19.0356 23.8009 19.0356C24.3153 19.0356 25.2696 18.2925 25.9863 17.3401C26.4317 16.7481 26.7017 15.8852 26.7904 14.7515Z"/><g id="left_2"><path id="Combined Shape" fill="#F4B300" fill-rule="evenodd" d="M34.5755 8.79834L24.2914 15.9243C23.9314 15.82 23.5383 15.763 23.1288 15.763C21.4603 15.763 20.064 16.7103 20.064 17.9397C20.064 19.1691 21.4603 20.1165 23.1288 20.1165C23.3202 20.1165 23.5079 20.104 23.6904 20.0801C23.5216 19.9629 23.3955 19.8164 23.3325 19.6607C23.2567 19.4733 23.2873 19.2999 23.4063 19.1834C23.3158 19.1914 23.2232 19.1956 23.1287 19.1956C22.003 19.1956 21.1341 18.6061 21.1341 17.9398C21.1341 17.2734 22.003 16.684 23.1287 16.684C24.2545 16.684 25.1233 17.2734 25.1233 17.9398C25.1233 18.1437 25.0419 18.3405 24.8967 18.5153C24.9241 18.4936 24.9516 18.4713 24.9792 18.4484C25.3356 18.1535 24.5347 19.3704 23.8421 19.3704C23.6848 19.3704 23.6482 19.4224 23.7001 19.5506C23.7692 19.7213 23.9782 19.8894 24.2511 19.9666C25.3792 19.6531 26.1937 18.8787 26.1937 17.9397C26.1937 17.5557 26.0574 17.1991 25.8191 16.8904L31.346 12.7208L31.716 13.0605L31.9823 12.8458L32.9056 13.454L32.5195 13.7186L33.3075 14.57L34.8972 13.4806L34.9241 13.4682L34.9194 13.4654L35.0179 13.3979L34.23 12.5465L33.849 12.8076L32.8167 12.1731L32.9377 12.0756L32.6055 11.7706L33.1049 11.3939L33.37 11.6373L33.6547 11.4078L34.5497 12.0375L34.1735 12.2953L34.9615 13.1467L36.3229 12.2138L36.4793 12.1377L36.4565 12.1222L36.6719 11.9746L35.884 11.1232L35.4389 11.4282L34.4586 10.7597L34.5917 10.6524L34.3644 10.4437L35.3819 9.67605L34.5755 8.79834Z" clip-rule="evenodd"/><path id="Combined Shape_2" fill="#BFBFBF" fill-rule="evenodd" d="M20.6474 16.7257C20.943 16.7257 21.1826 16.557 21.1826 16.3489C21.1826 16.1408 20.943 15.9722 20.6474 15.9722C20.3519 15.9722 20.1123 16.1408 20.1123 16.3489C20.1123 16.557 20.3519 16.7257 20.6474 16.7257ZM20.842 20.1582C21.1376 20.1582 21.3772 19.9895 21.3772 19.7815C21.3772 19.5734 21.1376 19.4047 20.842 19.4047C20.5465 19.4047 20.3069 19.5734 20.3069 19.7815C20.3069 19.9895 20.5465 20.1582 20.842 20.1582ZM26.1447 19.7815C26.1447 19.9895 25.9051 20.1582 25.6095 20.1582C25.314 20.1582 25.0744 19.9895 25.0744 19.7815C25.0744 19.5734 25.314 19.4047 25.6095 19.4047C25.9051 19.4047 26.1447 19.5734 26.1447 19.7815Z" clip-rule="evenodd"/></g><g id="right"><path id="Combined Shape_3" fill="#BFBFBF" fill-rule="evenodd" d="M29.3068 17.9398C29.3068 17.3873 29.5889 16.8917 30.051 16.5135L24.1453 12.4481L24.078 12.4942L24.2502 12.633L23.7845 13.0607L23.5393 12.863L22.6353 13.4818L22.981 13.7187L22.193 14.5701L20.6202 13.4923L20.5764 13.4684L20.5811 13.4655L20.4826 13.398L21.2705 12.5466L21.6515 12.8077L22.6838 12.1733L22.5628 12.0757L23.009 11.666L22.4891 11.308L22.1305 11.6374L21.8565 11.4165L20.9729 12.0528L21.327 12.2954L20.539 13.1468L19.2206 12.2434L19.0212 12.1377L19.0439 12.1223L18.8286 11.9747L19.6165 11.1234L20.0615 11.4283L21.0419 10.7597L20.9088 10.6525L21.1778 10.4054L20.1184 9.67616L20.787 8.95703L31.004 15.9901C31.4177 15.8444 31.883 15.7631 32.3717 15.7631C34.0402 15.7631 35.4365 16.7105 35.4365 17.9398C35.4365 19.1693 34.0402 20.1166 32.3717 20.1166C32.1803 20.1166 31.9925 20.1041 31.81 20.0802C31.9788 19.963 32.1049 19.8165 32.168 19.6608C32.2438 19.4734 32.2132 19.3 32.0943 19.1836C32.1847 19.1915 32.2773 19.1957 32.3718 19.1957C33.4975 19.1957 34.3664 18.6062 34.3664 17.9399C34.3664 17.2735 33.4975 16.6841 32.3718 16.6841C31.246 16.6841 30.3772 17.2735 30.3772 17.9399C30.3772 18.1438 30.4585 18.3405 30.6037 18.5153C30.5763 18.4936 30.5488 18.4713 30.5213 18.4485C30.1649 18.1535 30.9658 19.3705 31.6584 19.3705C31.8157 19.3705 31.8523 19.4224 31.8004 19.5506C31.7313 19.7214 31.5222 19.8895 31.2493 19.9667C30.1212 19.6531 29.3068 18.8787 29.3068 17.9398Z" clip-rule="evenodd"/><path id="Combined Shape_4" fill="#F4B300" fill-rule="evenodd" d="M34.853 16.7261C34.5575 16.7261 34.3179 16.5575 34.3179 16.3494C34.3179 16.1413 34.5575 15.9727 34.853 15.9727C35.1486 15.9727 35.3882 16.1413 35.3882 16.3494C35.3882 16.5575 35.1486 16.7261 34.853 16.7261ZM34.6585 20.1587C34.3629 20.1587 34.1233 19.99 34.1233 19.782C34.1233 19.5739 34.3629 19.4052 34.6585 19.4052C34.954 19.4052 35.1936 19.5739 35.1936 19.782C35.1936 19.99 34.954 20.1587 34.6585 20.1587ZM29.3558 19.782C29.3558 19.99 29.5954 20.1587 29.891 20.1587C30.1865 20.1587 30.4261 19.99 30.4261 19.782C30.4261 19.5739 30.1865 19.4052 29.891 19.4052C29.5954 19.4052 29.3558 19.5739 29.3558 19.782Z" clip-rule="evenodd"/></g><path id="Combined Shape_5" fill="#AF0100" fill-rule="evenodd" d="M27.442 13.7954C27.3704 13.7954 27.3123 13.8535 27.3123 13.9251V14.4652H26.7569C26.6876 14.4652 26.6313 14.5214 26.6313 14.5908C26.6313 14.6601 26.6876 14.7163 26.7569 14.7163H27.3123V21.8703C27.3123 21.942 27.3704 22.0001 27.442 22.0001H27.7664C27.838 22.0001 27.8961 21.942 27.8961 21.8703V14.7163H28.7436C28.813 14.7163 28.8692 14.6601 28.8692 14.5908C28.8692 14.5214 28.813 14.4652 28.7436 14.4652H27.8961V13.9251C27.8961 13.8535 27.838 13.7954 27.7664 13.7954H27.442Z" clip-rule="evenodd"/><path id="Path 391" fill="#979797" fill-rule="evenodd" d="M21.8491 9.59382L22.0872 9.73907C22.6422 9.06543 23.1417 8.93012 23.6497 9.28367C24.5267 9.89406 24.6027 11.3833 23.6647 11.8819C22.5461 12.4766 21.9791 13.6363 22.4752 14.2674C22.9329 14.8498 24.0363 14.6294 25.1257 13.8979C25.3191 13.768 25.5034 13.6294 25.6767 13.4837L25.4466 13.3258C25.2888 13.457 25.1214 13.5822 24.9461 13.6999C23.9744 14.3524 23.0408 14.5389 22.717 14.1267C22.3303 13.6347 22.8246 12.6238 23.8182 12.0956C24.9421 11.4981 24.8555 9.79982 23.8332 9.08839C23.1739 8.62952 22.4912 8.81448 21.8491 9.59382ZM26.133 12.6451L26.3705 12.7915C26.7836 12.2959 27.0659 11.7593 27.1595 11.2307L26.871 11.1928C26.7847 11.6796 26.5208 12.18 26.133 12.6451Z" clip-rule="evenodd"/><path id="Path 391_2" fill="#979797" fill-rule="evenodd" d="M33.6782 9.59382L33.4401 9.73907C32.8851 9.06543 32.3857 8.93012 31.8777 9.28367C31.0006 9.89406 30.9247 11.3833 31.8626 11.8819C32.9812 12.4766 33.5482 13.6363 33.0522 14.2674C32.5945 14.8498 31.4911 14.6294 30.4017 13.8979C30.2083 13.768 30.0239 13.6294 29.8506 13.4837L30.0808 13.3258C30.2386 13.457 30.406 13.5822 30.5813 13.6999C31.5529 14.3524 32.4865 14.5389 32.8104 14.1267C33.197 13.6347 32.7028 12.6238 31.7092 12.0956C30.5852 11.4981 30.6719 9.79982 31.6941 9.08839C32.3534 8.62952 33.0362 8.81448 33.6782 9.59382ZM29.3943 12.6451L29.1568 12.7915C28.7437 12.2959 28.4615 11.7592 28.3678 11.2307L28.6564 11.1928C28.7426 11.6796 29.0065 12.18 29.3943 12.6451Z" clip-rule="evenodd"/><path id="Oval 69" fill="#AF0100" fill-rule="evenodd" d="M27.6043 22.017C27.9267 22.017 28.1881 21.9008 28.1881 21.7575C28.1881 21.6142 27.9267 21.498 27.6043 21.498C27.2819 21.498 27.0205 21.6142 27.0205 21.7575C27.0205 21.9008 27.2819 22.017 27.6043 22.017Z" clip-rule="evenodd"/><path id="Oval 70" fill="#AF0100" fill-rule="evenodd" d="M27.5071 11.2197C28.6356 11.2197 29.5504 11.0841 29.5504 10.917C29.5504 10.7498 28.6356 10.6143 27.5071 10.6143C26.3787 10.6143 25.4639 10.7498 25.4639 10.917C25.4639 11.0841 26.3787 11.2197 27.5071 11.2197Z" clip-rule="evenodd"/><path id="Combined Shape_6" fill="#F4B300" fill-rule="evenodd" d="M27.6222 4.03857H27.3303V4.33771H27.0538V4.58887H27.3303V5.32186H27.6222V4.58887H27.959V4.33771H27.6222V4.03857ZM25.4273 7.65692L25.297 7.46183C25.3683 7.43523 25.4412 7.41013 25.5155 7.38652L25.1357 6.64627L25.4028 6.54483L25.7938 7.30691C25.8766 7.28568 25.9612 7.26613 26.0475 7.24827C25.9874 7.18789 25.9504 7.10527 25.9504 7.01414C25.9504 6.82919 26.1029 6.67926 26.2909 6.67926C26.479 6.67926 26.6315 6.82919 26.6315 7.01414C26.6315 7.06635 26.6193 7.11577 26.5977 7.15982C26.8288 7.13257 27.0703 7.11569 27.322 7.10917V6.82536H26.9565V6.62335H27.322V6.38275H27.7081V6.62335H28.1536V6.82536H27.7081V7.10718C27.9949 7.11161 28.2636 7.12935 28.5143 7.16049C28.4924 7.11628 28.4801 7.06662 28.4801 7.01414C28.4801 6.82919 28.6326 6.67926 28.8207 6.67926C29.0087 6.67926 29.1612 6.82919 29.1612 7.01414C29.1612 7.10888 29.1212 7.19443 29.0569 7.25535C29.1657 7.28057 29.2702 7.309 29.3704 7.34065L29.6498 6.79602L29.9169 6.89746L29.6397 7.43774C29.6616 7.44672 29.6833 7.45587 29.7047 7.46521L29.5577 7.65354L29.5341 7.64343L29.4893 7.73085L29.2223 7.62941L29.2659 7.54438C28.8401 7.40853 28.321 7.33514 27.7081 7.32526V7.41487H27.322V7.32733C26.5945 7.34705 25.9632 7.45717 25.4273 7.65692ZM25.297 7.88041L25.3651 7.98239L25.1357 8.06952L25.5155 8.80975C25.4412 8.83335 25.3683 8.85845 25.297 8.88505L25.4273 9.08014C25.9632 8.88039 26.5945 8.77026 27.322 8.75055V8.83815H27.7081V8.74848C28.321 8.75836 28.8401 8.83175 29.2659 8.9676L29.2223 9.05263L29.4893 9.15407L29.5341 9.06665L29.5577 9.07676L29.7047 8.88843C29.6833 8.87909 29.6616 8.86993 29.6397 8.86096L29.9169 8.32067L29.6498 8.21924L29.3704 8.76387C29.2703 8.73223 29.1658 8.7038 29.057 8.67858C29.1212 8.61767 29.1612 8.53214 29.1612 8.43742C29.1612 8.25247 29.0087 8.10254 28.8207 8.10254C28.6326 8.10254 28.4801 8.25247 28.4801 8.43742C28.4801 8.48987 28.4924 8.53951 28.5143 8.58371C28.2636 8.55257 27.9949 8.53483 27.7081 8.5304V8.24858H28.1536V8.04657H27.7081V7.80603H27.322V8.04657H26.9565V8.24858H27.322V8.53238C27.0703 8.53891 26.8288 8.55578 26.5977 8.58303C26.6193 8.539 26.6315 8.48961 26.6315 8.43742C26.6315 8.25247 26.479 8.10254 26.2909 8.10254C26.1029 8.10254 25.9504 8.25247 25.9504 8.43742C25.9504 8.52852 25.9874 8.61112 26.0474 8.6715C25.9612 8.68936 25.8766 8.7089 25.7937 8.73013L25.453 8.06601C26.0421 7.8508 26.7451 7.74268 27.5634 7.74268C28.391 7.74268 29.0553 7.85329 29.5577 8.07212L29.7047 7.88379C29.1533 7.64358 28.4391 7.52466 27.5634 7.52466C26.6902 7.52466 25.9342 7.64289 25.297 7.88041ZM25.297 9.30369L25.3651 9.40565L25.1357 9.49278L25.5155 10.233C25.4412 10.2566 25.3683 10.2817 25.297 10.3083L25.4273 10.5034C25.9632 10.3037 26.5945 10.1935 27.322 10.1738V10.2614H27.7081V10.1718C28.321 10.1816 28.8401 10.255 29.2659 10.3909L29.2223 10.4759L29.4893 10.5773L29.5341 10.4899L29.5577 10.5L29.7047 10.3117C29.6833 10.3024 29.6616 10.2932 29.6397 10.2842L29.9169 9.74395L29.6498 9.64252L29.3704 10.1872C29.2702 10.1555 29.1657 10.1271 29.0569 10.1018C29.1212 10.0409 29.1612 9.95538 29.1612 9.86064C29.1612 9.67569 29.0087 9.52576 28.8207 9.52576C28.6326 9.52576 28.4801 9.67569 28.4801 9.86064C28.4801 9.91312 28.4924 9.96278 28.5143 10.007C28.2636 9.97585 27.9949 9.95811 27.7081 9.95368V9.67185H28.1536V9.46985H27.7081V9.22925H27.322V9.46985H26.9565V9.67185H27.322V9.95566C27.0703 9.96219 26.8288 9.97906 26.5977 10.0063C26.6193 9.96227 26.6315 9.91285 26.6315 9.86064C26.6315 9.67569 26.479 9.52576 26.2909 9.52576C26.1029 9.52576 25.9504 9.67569 25.9504 9.86064C25.9504 9.95176 25.9874 10.0344 26.0475 10.0948C25.9612 10.1126 25.8766 10.1322 25.7938 10.1534L25.453 9.48929C26.0421 9.27408 26.7451 9.16596 27.5634 9.16596C28.391 9.16596 29.0553 9.27657 29.5577 9.4954L29.7047 9.30707C29.1533 9.06685 28.4391 8.94794 27.5634 8.94794C26.6902 8.94794 25.9342 9.06617 25.297 9.30369ZM25.297 10.7269L25.4273 10.922C26.0216 10.7005 26.7332 10.5892 27.5634 10.5892C28.391 10.5892 29.0553 10.6998 29.5577 10.9186L29.7047 10.7303C29.1533 10.4901 28.4391 10.3712 27.5634 10.3712C26.6902 10.3712 25.9342 10.4894 25.297 10.7269Z" clip-rule="evenodd"/></g></g></g></g></g></g><defs><filter id="filter0_dd_91_24129" width="42" height="30" x="0" y="0" color-interpolation-filters="sRGB" filterUnits="userSpaceOnUse"><feFlood flood-opacity="0" result="BackgroundImageFix"/><feColorMatrix in="SourceAlpha" result="hardAlpha" values="0 0 0 0 0 0 0 0 0 0 0 0 0 0 0 0 0 0 127 0"/><feOffset dy="1"/><feGaussianBlur stdDeviation="1"/><feColorMatrix values="0 0 0 0 0.0627451 0 0 0 0 0.0941176 0 0 0 0 0.156863 0 0 0 0.06 0"/><feBlend in2="BackgroundImageFix" result="effect1_dropShadow_91_24129"/><feColorMatrix in="SourceAlpha" result="hardAlpha" values="0 0 0 0 0 0 0 0 0 0 0 0 0 0 0 0 0 0 127 0"/><feOffset dy="1"/><feGaussianBlur stdDeviation="1.5"/><feColorMatrix values="0 0 0 0 0.0627451 0 0 0 0 0.0941176 0 0 0 0 0.156863 0 0 0 0.1 0"/><feBlend in2="effect1_dropShadow_91_24129" result="effect2_dropShadow_91_24129"/><feBlend in="SourceGraphic" in2="effect2_dropShadow_91_24129" result="shape"/></filter><clipPath id="clip0_91_24129"><rect width="36" height="24" x="3" y="2" fill="white" rx="2"/></clipPath></defs></svg>

<svg xmlns="http://www.w3.org/2000/svg" fill="none" aria-hidden="true" viewBox="0 0 42 30"><g filter="url(#a)"><g clip-path="url(#b)"><mask id="c" width="36" height="24" x="3" y="2" maskUnits="userSpaceOnUse" style="mask-type:alpha"><path fill="#fff" d="M3 2h36v24H3z"/></mask><g mask="url(#c)"><path fill="#F7FCFF" fill-rule="evenodd" d="M3 2h36v24H3V2Z" clip-rule="evenodd"/><path fill="#FFDC17" fill-rule="evenodd" d="M3 2h15.75v24H3V2Z" clip-rule="evenodd"/><path fill="#AF0100" d="m28.63 14.752-.389.022c.093 1.186.38 2.102.866 2.748.784 1.043 1.82 1.849 2.512 1.849.157 0 .194.052.142.18-.074.182-.307.361-.607.43-.5.114-1.635.174-3.387.174v.335c1.787 0 2.943-.06 3.487-.185.422-.097.757-.355.875-.644.135-.335-.07-.625-.51-.625-.514 0-1.469-.744-2.185-1.696-.446-.592-.716-1.455-.804-2.588Zm-1.84 0 .389.022c-.093 1.186-.38 2.102-.866 2.748-.784 1.043-1.82 1.849-2.512 1.849-.157 0-.194.052-.142.18.074.182.307.361.607.43.5.114 1.635.174 3.387.174v.335c-1.787 0-2.943-.06-3.487-.185-.422-.097-.758-.355-.875-.644-.135-.335.07-.625.51-.625.514 0 1.469-.744 2.185-1.696.446-.592.716-1.455.804-2.588Z"/><g fill-rule="evenodd" clip-rule="evenodd"><path fill="#F4B300" d="m34.575 8.798-10.284 7.126a4.19 4.19 0 0 0-1.162-.161c-1.669 0-3.065.947-3.065 2.177s1.396 2.176 3.065 2.176c.191 0 .379-.012.561-.036a.978.978 0 0 1-.358-.42c-.075-.187-.045-.36.074-.477-.09.008-.183.013-.277.013-1.126 0-1.995-.59-1.995-1.256 0-.667.869-1.256 1.995-1.256 1.125 0 1.994.59 1.994 1.256a.9.9 0 0 1-.226.575l.082-.067c.357-.294-.444.922-1.137.922-.157 0-.194.052-.142.18.07.171.278.34.551.417 1.128-.314 1.943-1.088 1.943-2.027 0-.384-.137-.74-.375-1.05l5.527-4.17.37.34.266-.214.924.608-.386.265.787.851 1.59-1.09.027-.012-.005-.003.099-.067-.788-.851-.381.26-1.032-.634.12-.097-.331-.305.499-.377.265.243.285-.23.895.63-.377.258.788.852 1.362-.933.156-.076-.023-.016.216-.147-.788-.852-.445.305-.98-.668.133-.108-.228-.208 1.018-.768-.806-.878Z"/><path fill="#BFBFBF" d="M20.647 16.726c.296 0 .536-.169.536-.377s-.24-.377-.536-.377c-.295 0-.535.169-.535.377s.24.377.535.377Zm.195 3.432c.296 0 .535-.169.535-.377s-.24-.376-.535-.376c-.295 0-.535.168-.535.377 0 .207.24.376.535.376Zm5.303-.377c0 .209-.24.377-.535.377-.296 0-.536-.169-.536-.377s.24-.376.535-.376c.296 0 .536.168.536.377Z"/></g><g fill-rule="evenodd" clip-rule="evenodd"><path fill="#BFBFBF" d="M29.307 17.94c0-.553.282-1.048.744-1.427l-5.906-4.065-.067.046.172.139-.465.428-.246-.198-.904.619.346.237-.788.851-1.573-1.078-.044-.024.005-.002-.098-.068.787-.851.381.26 1.033-.634-.121-.097.446-.41-.52-.358-.358.33-.274-.222-.884.637.354.242-.788.852-1.318-.904-.2-.105.023-.016-.215-.147.787-.852.445.305.98-.668-.132-.107.269-.248-1.06-.729.669-.719 10.217 7.033a4.133 4.133 0 0 1 1.368-.227c1.668 0 3.065.947 3.065 2.177s-1.397 2.177-3.065 2.177c-.192 0-.38-.013-.562-.037a.979.979 0 0 0 .358-.42c.076-.187.045-.36-.074-.476.09.008.183.012.278.012 1.126 0 1.994-.59 1.994-1.256 0-.667-.868-1.256-1.994-1.256s-1.995.59-1.995 1.256a.9.9 0 0 0 .227.575 4.739 4.739 0 0 1-.083-.067c-.356-.294.445.922 1.137.922.158 0 .194.052.142.18-.069.171-.278.34-.55.417-1.129-.314-1.943-1.088-1.943-2.027Z"/><path fill="#F4B300" d="M34.853 16.726c-.296 0-.535-.168-.535-.377 0-.208.24-.376.535-.376.296 0 .535.168.535.376 0 .209-.24.377-.535.377Zm-.195 3.433c-.295 0-.535-.169-.535-.377s.24-.377.535-.377c.296 0 .536.169.536.377s-.24.377-.536.377Zm-5.302-.377c0 .208.24.377.535.377.296 0 .535-.169.535-.377s-.24-.377-.535-.377c-.296 0-.535.169-.535.377Z"/></g><path fill="#AF0100" fill-rule="evenodd" d="M27.442 13.795a.13.13 0 0 0-.13.13v.54h-.555a.126.126 0 0 0 0 .251h.555v7.154c0 .072.058.13.13.13h.324a.13.13 0 0 0 .13-.13v-7.154h.848a.126.126 0 1 0 0-.25h-.848v-.54a.13.13 0 0 0-.13-.13h-.324Z" clip-rule="evenodd"/><path fill="#979797" fill-rule="evenodd" d="m21.85 9.594.237.145c.555-.674 1.055-.809 1.563-.455.877.61.953 2.1.015 2.598-1.119.595-1.686 1.754-1.19 2.385.458.583 1.561.362 2.65-.37.194-.129.378-.268.552-.413l-.23-.158a6.117 6.117 0 0 1-.5.374c-.973.652-1.906.839-2.23.427-.387-.492.108-1.503 1.101-2.031 1.124-.598 1.037-2.296.015-3.008-.66-.458-1.342-.274-1.984.506Zm4.283 3.051.238.146c.413-.495.695-1.032.789-1.56l-.289-.038c-.086.487-.35.987-.738 1.452Zm7.545-3.051-.238.145c-.555-.674-1.054-.809-1.562-.455-.877.61-.953 2.1-.015 2.598 1.118.595 1.685 1.754 1.19 2.385-.459.583-1.562.362-2.651-.37a6.417 6.417 0 0 1-.551-.413l.23-.158c.158.131.325.256.5.374.972.652 1.905.839 2.23.427.386-.492-.108-1.503-1.102-2.031-1.124-.598-1.037-2.296-.015-3.008.66-.458 1.342-.274 1.984.506Zm-4.284 3.051-.237.146c-.413-.495-.695-1.032-.79-1.56l.29-.038c.086.487.35.987.737 1.452Z" clip-rule="evenodd"/><path fill="#AF0100" fill-rule="evenodd" d="M27.604 22.017c.323 0 .584-.116.584-.26 0-.143-.261-.259-.584-.259-.322 0-.584.116-.584.26 0 .143.262.259.584.259Zm-.097-10.797c1.129 0 2.043-.136 2.043-.303 0-.167-.914-.303-2.043-.303-1.128 0-2.043.136-2.043.303 0 .167.915.303 2.043.303Z" clip-rule="evenodd"/><path fill="#F4B300" fill-rule="evenodd" d="M27.622 4.039h-.292v.299h-.276v.25h.276v.734h.292v-.733h.337v-.251h-.337v-.3Zm-2.195 3.618-.13-.195a4.68 4.68 0 0 1 .218-.075l-.38-.74.268-.102.39.762a8.7 8.7 0 0 1 .255-.059.33.33 0 0 1-.098-.234c0-.185.153-.335.34-.335.189 0 .341.15.341.335a.33.33 0 0 1-.033.146c.23-.027.472-.044.724-.05v-.285h-.366v-.202h.366v-.24h.386v.24h.446v.202h-.446v.282c.287.005.556.022.806.053a.329.329 0 0 1-.034-.146c0-.185.153-.335.34-.335.189 0 .341.15.341.335 0 .095-.04.18-.104.241a4.3 4.3 0 0 1 .313.086l.28-.545.267.101-.277.54.065.028-.147.189-.024-.01-.045.087-.267-.102.044-.085c-.426-.135-.945-.209-1.558-.219v.09h-.386v-.088c-.727.02-1.359.13-1.895.33Zm-.13.223.068.102-.23.088.38.74a4.669 4.669 0 0 0-.218.075l.13.195c.536-.2 1.168-.31 1.895-.33v.088h.386v-.09c.613.01 1.132.084 1.558.22l-.044.085.267.101.045-.087.024.01.147-.189a3.1 3.1 0 0 0-.065-.027l.277-.54-.267-.102-.28.545c-.1-.032-.204-.06-.313-.085a.331.331 0 0 0 .104-.242.338.338 0 0 0-.34-.334.337.337 0 0 0-.307.481 7.493 7.493 0 0 0-.806-.054v-.28h.446v-.202h-.446v-.241h-.386v.24h-.366v.203h.366v.283a7.95 7.95 0 0 0-.724.051.33.33 0 0 0 .034-.146.338.338 0 0 0-.341-.334c-.188 0-.34.15-.34.334 0 .092.036.174.096.235-.086.017-.17.037-.253.058l-.341-.664c.59-.215 1.292-.323 2.11-.323.828 0 1.492.11 1.995.33l.147-.19c-.552-.24-1.266-.358-2.142-.358-.873 0-1.629.118-2.266.355Zm0 1.424.068.102-.23.087.38.74a4.669 4.669 0 0 0-.218.075l.13.195c.536-.2 1.168-.31 1.895-.33v.088h.386v-.09c.613.01 1.132.084 1.558.22l-.044.085.267.101.045-.087.024.01.147-.188a3.525 3.525 0 0 0-.065-.028l.277-.54-.267-.101-.28.544c-.1-.031-.204-.06-.313-.085a.331.331 0 0 0 .104-.241.338.338 0 0 0-.34-.335.337.337 0 0 0-.307.481 7.49 7.49 0 0 0-.806-.053v-.282h.446V9.47h-.446v-.24h-.386v.24h-.366v.202h.366v.284a7.954 7.954 0 0 0-.724.05.33.33 0 0 0 .034-.145.338.338 0 0 0-.341-.335c-.188 0-.34.15-.34.335a.33.33 0 0 0 .096.234c-.086.018-.17.037-.253.058l-.341-.664c.59-.215 1.292-.323 2.11-.323.828 0 1.492.11 1.995.33l.147-.189c-.552-.24-1.266-.36-2.142-.36-.873 0-1.629.12-2.266.357Zm0 1.423.13.195c.595-.222 1.306-.333 2.136-.333.828 0 1.492.11 1.995.33l.147-.189c-.552-.24-1.266-.359-2.142-.359-.873 0-1.629.118-2.266.356Z" clip-rule="evenodd"/></g></g></g><defs><clipPath id="b"><rect width="36" height="24" x="3" y="2" fill="#fff" rx="2"/></clipPath><filter id="a" width="42" height="30" x="0" y="0" color-interpolation-filters="sRGB" filterUnits="userSpaceOnUse"><feFlood flood-opacity="0" result="BackgroundImageFix"/><feColorMatrix in="SourceAlpha" result="hardAlpha" values="0 0 0 0 0 0 0 0 0 0 0 0 0 0 0 0 0 0 127 0"/><feOffset dy="1"/><feGaussianBlur stdDeviation="1"/><feColorMatrix values="0 0 0 0 0.0627451 0 0 0 0 0.0941176 0 0 0 0 0.156863 0 0 0 0.06 0"/><feBlend in2="BackgroundImageFix" result="effect1_dropShadow_91_24129"/><feColorMatrix in="SourceAlpha" result="hardAlpha" values="0 0 0 0 0 0 0 0 0 0 0 0 0 0 0 0 0 0 127 0"/><feOffset dy="1"/><feGaussianBlur stdDeviation="1.5"/><feColorMatrix values="0 0 0 0 0.0627451 0 0 0 0 0.0941176 0 0 0 0 0.156863 0 0 0 0.1 0"/><feBlend in2="effect1_dropShadow_91_24129" result="effect2_dropShadow_91_24129"/><feBlend in="SourceGraphic" in2="effect2_dropShadow_91_24129" result="shape"/></filter></defs></svg>
